packages/foundations/assets/icons/functional/images/logos/subway_12.svg

<svg width="12" height="12" viewBox="0 0 12 12" fill="none" xmlns="http://www.w3.org/2000/svg">
<g clip-path="url(#clip0_232_299)">
<path fill-rule="evenodd" clip-rule="evenodd" d="M9.00001 1.2C9.99413 1.2 10.8 2.00588 10.8 3V9C10.8 9.99411 9.99413 10.8 9.00001 10.8H3.00001C2.0059 10.8 1.20001 9.99411 1.20001 9V3C1.20001 2.00588 2.0059 1.2 3.00001 1.2H9.00001ZM3.00001 2.4C2.69231 2.4 2.43871 2.63162 2.40405 2.93002L2.40001 9C2.40001 9.3077 2.63164 9.5613 2.93004 9.59596L9.00001 9.6C9.30771 9.6 9.56132 9.36837 9.59598 9.06997L9.60001 3C9.60001 2.6923 9.36839 2.43869 9.06999 2.40403L3.00001 2.4ZM5.20001 3.6V6.54379C5.20001 7.08138 5.52631 7.4 6.00009 7.4C6.44599 7.4 6.76113 7.11776 6.79666 6.63636L6.80001 3.6H8.00001V6.65311C8.00001 7.93228 7.08278 8.4 6.00009 8.4C4.95348 8.4 4.06135 7.96189 4.00304 6.77823L4.00001 3.6H5.20001Z" fill="#1A1C1F"/>
</g>
<defs>
<clipPath id="clip0_232_299">
<rect width="12" height="12" fill="white"/>
</clipPath>
</defs>
</svg>

<svg xmlns="http://www.w3.org/2000/svg" width="12" height="12" fill="none"><g clip-path="url(#a)"><path fill="#1A1C1F" fill-rule="evenodd" d="M9 1.2A1.8 1.8 0 0 1 10.8 3v6A1.8 1.8 0 0 1 9 10.8H3A1.8 1.8 0 0 1 1.2 9V3A1.8 1.8 0 0 1 3 1.2zM3 2.4a.6.6 0 0 0-.596.53L2.4 9a.6.6 0 0 0 .53.596L9 9.6a.6.6 0 0 0 .596-.53L9.6 3a.6.6 0 0 0-.53-.596zm2.2 1.2v2.944c0 .537.326.856.8.856.446 0 .761-.282.797-.764L6.8 3.6H8v3.053C8 7.933 7.083 8.4 6 8.4c-1.047 0-1.939-.438-1.997-1.622L4 3.6z" clip-rule="evenodd"/></g><defs><clipPath id="a"><path fill="#fff" d="M0 0h12v12H0z"/></clipPath></defs></svg>
